src/styles/Icons/assets/generic/shield.svg

<svg xmlns="http://www.w3.org/2000/svg" width="16.5" height="20"><path fill="#999" d="M8.2 20l-.2-.1C7.7 19.8.8 16.5.1 8.2-.1 4.8.1 3.1.1 3v-.3l.3-.1c.1 0 5.7-1.4 7.2-2.2l.6-.4.6.3c1.5.8 7.1 2.2 7.2 2.2l.4.1.1.9s.2 1.3-.1 4.7c-.7 8.2-7.6 11.5-7.9 11.7l-.3.1zM1.1 3.5c-.1.6-.1 2.2.1 4.7.5 6.9 5.9 10.1 7 10.7 1.2-.6 6.5-3.9 7-10.7.3-3.3.1-4.5.1-4.5v-.2c-1.2-.4-5.6-1.5-7-2.3h-.2c-1.4.8-5.7 2-7 2.3zm7.1 3.9"/><path fill="#999" d="M6.9 13.3l-2.6-2.6c-.3-.3-.3-.8 0-1.1s.8-.3 1.1 0L7 11.2l4.3-4.3c.3-.3.8-.3 1.1 0s.3.8 0 1.1l-5.5 5.3z"/></svg>

<?xml version="1.0" encoding="utf-8"?>
<!-- Generator: Adobe Illustrator 20.1.0, SVG Export Plug-In . SVG Version: 6.00 Build 0)  -->
<svg version="1.1" id="Layer_1" xmlns="http://www.w3.org/2000/svg" xmlns:xlink="http://www.w3.org/1999/xlink" x="0px" y="0px"
	 width="16.5px" height="20px" viewBox="0 0 16.5 20" enable-background="new 0 0 16.5 20" xml:space="preserve">
<g>
	<g>
		<path fill="#999999" d="M8.2,20L8,19.9c-0.3-0.1-7.2-3.4-7.9-11.7c-0.2-3.4,0-5.1,0-5.2V2.7l0.3-0.1c0.1,0,5.7-1.4,7.2-2.2L8.2,0
			l0.6,0.3c1.5,0.8,7.1,2.2,7.2,2.2l0.4,0.1l0.1,0.9c0,0,0.2,1.3-0.1,4.7c-0.7,8.2-7.6,11.5-7.9,11.7L8.2,20z M1.1,3.5
			C1,4.1,1,5.7,1.2,8.2c0.5,6.9,5.9,10.1,7,10.7c1.2-0.6,6.5-3.9,7-10.7c0.3-3.3,0.1-4.5,0.1-4.5V3.5c-1.2-0.4-5.6-1.5-7-2.3H8.2
			H8.1C6.7,2,2.4,3.2,1.1,3.5z"/>
	</g>
</g>
<line fill="#999999" x1="8.2" y1="7.4" x2="8.2" y2="7.4"/>
<g>
	<path fill="#999999" d="M6.9,13.3l-2.6-2.6C4,10.4,4,9.9,4.3,9.6s0.8-0.3,1.1,0L7,11.2l4.3-4.3c0.3-0.3,0.8-0.3,1.1,0
		s0.3,0.8,0,1.1L6.9,13.3z"/>
</g>
</svg>
